icons/14x14_calendar_filled.svg

<svg width="14" height="14" fill="none" xmlns="http://www.w3.org/2000/svg"><path fill-rule="evenodd" clip-rule="evenodd" d="M9 2a1 1 0 0 1 1 1c1.103 0 2 .897 2 2v5c0 1.103-.897 2-2 2H4c-1.103 0-2-.897-2-2V5c0-1.103.897-2 2-2a1 1 0 0 1 2 0h2a1 1 0 0 1 1-1ZM2 6v1h10V6H2Z" fill="#000"/></svg>

<svg xmlns="http://www.w3.org/2000/svg" width="14" height="14" viewBox="0 0 14 14">
  <path fill-rule="evenodd" d="M9,2 C9.552,2 10,2.448 10,3 C11.103,3 12,3.897 12,5 L12,10 C12,11.103 11.103,12 10,12 L4,12 C2.897,12 2,11.103 2,10 L2,5 C2,3.897 2.897,3 4,3 C4,2.448 4.448,2 5,2 C5.552,2 6,2.448 6,3 L8,3 C8,2.448 8.448,2 9,2 Z M2,6 L2,7 L12,7 L12,6 L2,6 Z"/>
</svg>
